packages/kaspersky-hexa-ui-icons/src/iconsSVGs/16/BookmarkSolid.svg

<svg width="16" height="16" viewBox="0 0 16 16" fill="none" xmlns="http://www.w3.org/2000/svg">
<path d="M3.5 2.51709C3.5 2.24095 3.72386 2.01709 4 2.01709H12C12.2761 2.01709 12.5 2.24095 12.5 2.51709V13.9037C12.5 14.3351 11.9903 14.564 11.6678 14.2774L8.33218 11.3124C8.14274 11.144 7.85726 11.144 7.66782 11.3124L4.33218 14.2774C4.00973 14.564 3.5 14.3351 3.5 13.9037V2.51709Z" fill="black"/>
</svg>

<svg xmlns="http://www.w3.org/2000/svg" width="16" height="16" fill="none" viewBox="0 0 16 16"><path fill="#000" d="M3.5 2.517a.5.5 0 0 1 .5-.5h8a.5.5 0 0 1 .5.5v11.3865c0 .4315-.5097.6604-.8322.3738l-3.3356-2.9651a.5.5 0 0 0-.6644 0l-3.3356 2.9651c-.3225.2866-.8322.0577-.8322-.3738z"/></svg>
